X:1
T:All through the Rain and Squally Weather
M:4/4
L:1/4
K:D
 A| F F/2E/2 D B| A A/2G/2 F D| A2 A2| B2 B2| A A/2A/2 G A| D D/2E/2 F G|\
 A A A/2A/2 A| F A A2| F3/2 E/2 F B| A3/2 G/2 F D| A2 c2| B2 B2| A F G A|\
 D E F G| A A A/2A/2 A| F A A||
